assets/icons/qvision/design_services.svg

<svg width="24" height="24" viewBox="0 0 24 24" fill="none" xmlns="http://www.w3.org/2000/svg">
<g clip-path="url(#clip0_147_5178)">
<path d="M16.24 11.51L17.81 9.93998L14.06 6.18998L12.49 7.75998L8.35 3.62998C7.57 2.84998 6.3 2.84998 5.52 3.62998L3.62 5.52998C2.84 6.30998 2.84 7.57998 3.62 8.35998L7.75 12.49L3 17.25V21H6.75L11.51 16.24L15.64 20.37C16.59 21.32 17.87 20.97 18.47 20.37L20.37 18.47C21.15 17.69 21.15 16.42 20.37 15.64L16.24 11.51ZM9.18 11.07L5.04 6.93998L6.93 5.03998L8.2 6.30998L7.02 7.49998L8.43 8.90998L9.62 7.71998L11.07 9.16998L9.18 11.07ZM17.06 18.96L12.93 14.83L14.83 12.93L16.28 14.38L15.09 15.57L16.5 16.98L17.69 15.79L18.96 17.06L17.06 18.96Z" fill="#323232"/>
<path d="M20.7099 7.03999C21.0999 6.64999 21.0999 6.01999 20.7099 5.62999L18.3699 3.28999C17.8999 2.81999 17.2499 2.99999 16.9599 3.28999L15.1299 5.11999L18.8799 8.86999L20.7099 7.03999Z" fill="#323232"/>
</g>
<defs>
<clipPath id="clip0_147_5178">
<rect width="24" height="24" fill="white"/>
</clipPath>
</defs>
</svg>

<svg xmlns="http://www.w3.org/2000/svg" enable-background="new 0 0 24 24" height="24" viewBox="0 0 24 24" width="24"><g><rect fill="none" height="24" width="24"/></g><g><g><path d="M16.24,11.51l1.57-1.57l-3.75-3.75l-1.57,1.57L8.35,3.63c-0.78-0.78-2.05-0.78-2.83,0l-1.9,1.9 c-0.78,0.78-0.78,2.05,0,2.83l4.13,4.13L3,17.25V21h3.75l4.76-4.76l4.13,4.13c0.95,0.95,2.23,0.6,2.83,0l1.9-1.9 c0.78-0.78,0.78-2.05,0-2.83L16.24,11.51z M9.18,11.07L5.04,6.94l1.89-1.9c0,0,0,0,0,0l1.27,1.27L7.02,7.5l1.41,1.41l1.19-1.19 l1.45,1.45L9.18,11.07z M17.06,18.96l-4.13-4.13l1.9-1.9l1.45,1.45l-1.19,1.19l1.41,1.41l1.19-1.19l1.27,1.27L17.06,18.96z"/><path d="M20.71,7.04c0.39-0.39,0.39-1.02,0-1.41l-2.34-2.34c-0.47-0.47-1.12-0.29-1.41,0l-1.83,1.83l3.75,3.75L20.71,7.04z"/></g><g/></g></svg>
